X: 1
T:Alan Paterson of Berne
M:4/4
L:1/8
Q:1/4=192
C:Ian B Robertson
R:Reel
Z:Alan Paterson  8 October 2003
K:G
|:D2|"G"G2 AB "D7"c2 A2|"G"d2 B2 "C"e2 dc|"G"BcdB "Em"A2 GE|"Am"F2 A2 A2
D2|"G"G2 AB "D7"c2 A2|"G"d2 B2 "C"e2 dc|"G"Bdgb "Am"aefe|d2 g2 g2:|!
fg|"Am"abaf "D7"d2 ga|"G"b3 a g2 d2|"Am"edce "G"dBAG|"Am"F2 A2 A2 "D"fg|
"Am"abaf "D"d2 ga|"G"b3 g d2 Bd|"Am"cBAG "D7"FdcA|"G"B2 G2 G2 fg|!
"Am"abaf "D"d2 ga|"G"b3 a g2 d2|"C"edce "G"dBAG|"Am"F2 A2 A2 "D7"D2|"Em"
GABG "D"ABcA|"G"Bdgd "C"e2 dc|"G"Bdgb "D7"aefe|"G"d2 g2 g2||
